svgs/sharp-light/clone.svg

<svg xmlns="http://www.w3.org/2000/svg" viewBox="0 0 512 512"><!--! Font Awesome Pro 6.6.0 by @fontawesome - https://fontawesome.com License - https://fontawesome.com/license (Commercial License) Copyright 2024 Fonticons, Inc. --><path d="M32 480l288 0 0-96 32 0 0 96 0 32-32 0L32 512 0 512l0-32L0 192l0-32 32 0 96 0 0 32-96 0 0 288zM192 320l288 0 0-288L192 32l0 288zm-32 32l0-32 0-288 0-32 32 0L480 0l32 0 0 32 0 288 0 32-32 0-288 0-32 0z"/></svg>

<svg xmlns="http://www.w3.org/2000/svg" viewBox="0 0 512 512"><!--! Font Awesome Pro 6.4.2 by @fontawesome - https://fontawesome.com License - https://fontawesome.com/license (Commercial License) Copyright 2023 Fonticons, Inc. --><path d="M32 480H320V384h32v96 32H320 32 0V480 192 160H32h96v32H32V480zM192 320H480V32H192V320zm-32 32V320 32 0h32H480h32V32 320v32H480 192 160z"/></svg>
